flaticon/transport/police-car.svg

<svg xmlns="http://www.w3.org/2000/svg" width="32" height="32" viewBox="0 0 24 24">
    <path d="M6.800781 13.199219L3.601562 13.199219C3.359375 13.199219 3.199219 13.359375 3.199219 13.601562L3.199219 16C3.199219 16.238281 3.359375 16.398438 3.601562 16.398438L6.800781 16.398438C7.039062 16.398438 7.199219 16.238281 7.199219 16L7.199219 13.601562C7.199219 13.359375 7.039062 13.199219 6.800781 13.199219zM6.398438 15.601562L4 15.601562 4 14 6.398438 14zM20.398438 13.199219L17.199219 13.199219C16.960938 13.199219 16.800781 13.359375 16.800781 13.601562L16.800781 16C16.800781 16.238281 16.960938 16.398438 17.199219 16.398438L20.398438 16.398438C20.640625 16.398438 20.800781 16.238281 20.800781 16L20.800781 13.601562C20.800781 13.359375 20.640625 13.199219 20.398438 13.199219zM20 15.601562L17.601562 15.601562 17.601562 14 20 14zM20 15.601562"/>
    <path d="M 22.359375 9.199219 L 23.28125 9.199219 C 23.679688 9.199219 24 8.878906 24 8.480469 L 24 5.960938 C 24 5.558594 23.679688 5.238281 23.28125 5.238281 L 22.359375 5.238281 C 21.960938 5.238281 21.640625 5.558594 21.640625 5.960938 L 21.640625 6.800781 L 20.726562 6.800781 L 19.960938 4.441406 C 19.679688 3.480469 18.800781 2.800781 17.800781 2.800781 L 14 2.800781 L 14 2 C 14 0.878906 13.121094 0 12 0 C 10.878906 0 10 0.878906 10 2 L 10 2.800781 L 6.199219 2.800781 C 5.199219 2.800781 4.320312 3.480469 4.039062 4.441406 L 3.273438 6.800781 L 2.359375 6.800781 L 2.359375 5.960938 C 2.359375 5.558594 2.039062 5.238281 1.640625 5.238281 L 0.71875 5.238281 C 0.320312 5.238281 0 5.558594 0 5.960938 L 0 8.480469 C 0 8.878906 0.320312 9.199219 0.71875 9.199219 L 1.679688 9.199219 C 2.078125 9.199219 2.398438 8.878906 2.359375 8.480469 L 2.359375 7.601562 L 3.011719 7.601562 L 1.996094 10.726562 L 1 12.679688 C 0.878906 12.960938 0.800781 13.28125 0.800781 13.601562 L 0.800781 18.066406 C 0.328125 18.222656 0 18.660156 0 19.199219 L 0 20 C 0 20.679688 0.519531 21.199219 1.199219 21.199219 L 2 21.199219 L 2 22.398438 C 2 23.28125 2.71875 24 3.601562 24 L 5.199219 24 C 6.078125 24 6.800781 23.28125 6.800781 22.398438 L 6.800781 21.199219 L 16.800781 21.199219 L 16.800781 22.398438 C 16.800781 23.28125 17.519531 24 18.398438 24 L 20 24 C 20.878906 24 21.601562 23.28125 21.601562 22.398438 L 21.601562 21.199219 L 22.800781 21.199219 C 23.480469 21.199219 24 20.679688 24 20 L 24 19.199219 C 24 18.660156 23.671875 18.222656 23.199219 18.066406 L 23.199219 13.601562 C 23.199219 13.28125 23.121094 12.960938 23 12.679688 L 22.003906 10.726562 L 20.988281 7.601562 L 21.640625 7.601562 L 21.640625 8.480469 C 21.640625 8.878906 21.960938 9.199219 22.359375 9.199219 Z M 1.601562 8.398438 L 0.800781 8.398438 L 0.800781 6 L 1.601562 6 Z M 10.800781 2 C 10.800781 1.320312 11.320312 0.800781 12 0.800781 C 12.679688 0.800781 13.199219 1.320312 13.199219 2 L 13.199219 2.800781 L 10.800781 2.800781 Z M 6 22.398438 C 6 22.839844 5.640625 23.199219 5.199219 23.199219 L 3.601562 23.199219 C 3.160156 23.199219 2.800781 22.839844 2.800781 22.398438 L 2.800781 21.199219 L 6 21.199219 Z M 20.800781 22.398438 C 20.800781 22.839844 20.441406 23.199219 20 23.199219 L 18.398438 23.199219 C 17.960938 23.199219 17.601562 22.839844 17.601562 22.398438 L 17.601562 21.199219 L 20.800781 21.199219 Z M 23.199219 20 C 23.199219 20.238281 23.039062 20.398438 22.800781 20.398438 L 1.199219 20.398438 C 0.960938 20.398438 0.800781 20.238281 0.800781 20 L 0.800781 19.199219 C 0.800781 18.960938 0.960938 18.800781 1.199219 18.800781 L 22.800781 18.800781 C 23.039062 18.800781 23.199219 18.960938 23.199219 19.199219 Z M 22.398438 13.601562 L 22.398438 18 L 1.601562 18 L 1.601562 13.601562 C 1.601562 13.398438 1.640625 13.199219 1.71875 13.039062 L 2.640625 11.199219 L 21.359375 11.199219 L 22.28125 13.039062 C 22.359375 13.238281 22.398438 13.398438 22.398438 13.601562 Z M 13.761719 10.398438 L 14.613281 9.546875 C 14.667969 9.515625 14.714844 9.46875 14.75 9.410156 L 16.679688 7.480469 C 16.839844 7.320312 16.839844 7.078125 16.679688 6.921875 C 16.519531 6.761719 16.28125 6.761719 16.121094 6.921875 L 14.800781 8.238281 L 14.800781 7.601562 C 14.800781 7.359375 14.640625 7.199219 14.398438 7.199219 C 14.160156 7.199219 14 7.359375 14 7.601562 L 14 9.039062 L 12.640625 10.398438 L 8.160156 10.398438 L 9.011719 9.546875 C 9.070312 9.515625 9.117188 9.46875 9.148438 9.410156 L 11.078125 7.480469 C 11.238281 7.320312 11.238281 7.078125 11.078125 6.921875 C 10.921875 6.761719 10.679688 6.761719 10.519531 6.921875 L 9.199219 8.238281 L 9.199219 7.601562 C 9.199219 7.359375 9.039062 7.199219 8.800781 7.199219 C 8.558594 7.199219 8.398438 7.359375 8.398438 7.601562 L 8.398438 9.039062 L 7.039062 10.398438 L 2.960938 10.398438 L 3.890625 7.492188 C 3.960938 7.421875 4 7.320312 4 7.199219 C 4 7.183594 4 7.167969 3.996094 7.152344 L 4.800781 4.640625 C 5 4.039062 5.558594 3.601562 6.199219 3.601562 L 17.800781 3.601562 C 18.441406 3.601562 19 4.039062 19.199219 4.679688 L 20 7.171875 C 20 7.179688 20 7.191406 20 7.199219 C 20 7.3125 20.035156 7.410156 20.101562 7.480469 L 21.039062 10.398438 Z M 22.398438 6 L 23.199219 6 L 23.199219 8.398438 L 22.398438 8.398438 Z M 22.398438 6"/>
    <path d="M10.398438 13.601562L13.601562 13.601562C13.839844 13.601562 14 13.441406 14 13.199219 14 12.960938 13.839844 12.800781 13.601562 12.800781L10.398438 12.800781C10.160156 12.800781 10 12.960938 10 13.199219 10 13.441406 10.160156 13.601562 10.398438 13.601562zM13.601562 16L10.398438 16C10.160156 16 10 16.160156 10 16.398438 10 16.640625 10.160156 16.800781 10.398438 16.800781L13.601562 16.800781C13.839844 16.800781 14 16.640625 14 16.398438 14 16.160156 13.839844 16 13.601562 16zM14.398438 14.398438L9.601562 14.398438C9.359375 14.398438 9.199219 14.558594 9.199219 14.800781 9.199219 15.039062 9.359375 15.199219 9.601562 15.199219L14.398438 15.199219C14.640625 15.199219 14.800781 15.039062 14.800781 14.800781 14.800781 14.558594 14.640625 14.398438 14.398438 14.398438zM14.398438 14.398438"/>
</svg>

<svg xmlns="http://www.w3.org/2000/svg" width="32" height="32" viewBox="0 0 24 24">
    <path d="M6.8 13.2H3.603c-.243 0-.403.16-.403.402V16c0 .238.16.398.403.398H6.8c.238 0 .398-.16.398-.398v-2.398c0-.243-.16-.403-.398-.403zm-.402 2.402H4V14h2.398zm0 0M20.398 13.2H17.2c-.238 0-.398.16-.398.402V16c0 .238.16.398.398.398h3.2c.242 0 .402-.16.402-.398v-2.398c0-.243-.16-.403-.403-.403zM20 15.601h-2.398V14H20zm0 0"/>
    <path d="M22.36 9.2h.921c.399 0 .719-.321.719-.72V5.96a.718.718 0 0 0-.719-.722h-.922a.718.718 0 0 0-.718.723v.84h-.914l-.766-2.36c-.281-.96-1.16-1.64-2.16-1.64H14V2c0-1.121-.879-2-2-2s-2 .879-2 2v.8H6.2c-1 0-1.88.68-2.16 1.641l-.767 2.36H2.36v-.84a.718.718 0 0 0-.718-.723H.719A.718.718 0 0 0 0 5.961v2.52c0 .398.32.718.719.718h.96c.4 0 .72-.32.68-.719v-.878h.653l-1.016 3.125L1 12.68c-.121.28-.2.601-.2.922v4.464A1.17 1.17 0 0 0 0 19.2V20c0 .68.52 1.2 1.2 1.2H2v1.198C2 23.281 2.719 24 3.602 24h1.597c.88 0 1.602-.719 1.602-1.602V21.2h10v1.2c0 .882.719 1.601 1.597 1.601H20c.879 0 1.602-.719 1.602-1.602V21.2H22.8C23.48 21.2 24 20.68 24 20v-.8c0-.54-.328-.977-.8-1.134v-4.464c0-.32-.079-.641-.2-.922l-.996-1.953-1.016-3.125h.653v.878c0 .399.32.72.718.72zM1.601 8.397H.8V6h.8zM10.8 2c0-.68.52-1.2 1.199-1.2.68 0 1.2.52 1.2 1.2v.8h-2.4zM6 22.398c0 .442-.36.801-.8.801H3.601c-.442 0-.801-.36-.801-.8v-1.2H6zm14.8 0c0 .442-.359.801-.8.801h-1.602a.801.801 0 0 1-.796-.8v-1.2H20.8zM23.2 20c0 .238-.16.398-.4.398H1.2c-.24 0-.4-.16-.4-.398v-.8c0-.24.16-.4.4-.4h21.6c.24 0 .4.16.4.4zm-.802-6.398V18H1.602v-4.398c0-.204.039-.403.117-.563l.922-1.84h18.718l.922 1.84c.078.2.117.36.117.563zm-8.636-3.204l.851-.851a.382.382 0 0 0 .137-.137l1.93-1.93a.385.385 0 0 0 0-.558.385.385 0 0 0-.559 0l-1.32 1.316v-.636c0-.243-.16-.403-.403-.403-.238 0-.398.16-.398.403v1.437l-1.36 1.36H8.16l.852-.852a.33.33 0 0 0 .136-.137l1.93-1.93a.385.385 0 0 0 0-.558.385.385 0 0 0-.558 0L9.2 8.238v-.636c0-.243-.16-.403-.4-.403-.241 0-.402.16-.402.403v1.437L7.04 10.4H2.961l.93-2.907C3.96 7.422 4 7.32 4 7.2c0-.015 0-.031-.004-.047l.805-2.511C5 4.039 5.559 3.6 6.199 3.6h11.602c.64 0 1.199.438 1.398 1.079L20 7.172v.027a.4.4 0 0 0 .102.281l.937 2.918zM22.398 6h.801v2.398h-.8zm0 0"/>
    <path d="M10.398 13.602h3.204c.238 0 .398-.16.398-.403 0-.238-.16-.398-.398-.398h-3.204c-.238 0-.398.16-.398.398 0 .242.16.403.398.403zm0 0M13.602 16h-3.204c-.238 0-.398.16-.398.398 0 .243.16.403.398.403h3.204c.238 0 .398-.16.398-.403 0-.238-.16-.398-.398-.398zm0 0M14.398 14.398H9.602c-.243 0-.403.16-.403.403 0 .238.16.398.403.398h4.796c.243 0 .403-.16.403-.398 0-.242-.16-.403-.403-.403zm0 0"/>
</svg>
